X: 179
T: Salve regina VI
N: Derived from Rue2026-Salve_regina_VI.krn
C: Pierre de la Rue
%%abc-version 2.0
%%abcx-abcm2ps-target-version 5.9.1 (29 Sep 2008)
%%abc-creator hum2abc beta
%%abcx-conversion-date 2019/02/17 08:01:17
%%abc-edited-by Jesse Rodin
%%abc-edited-by Chris Gage 10-16-2013
%%abcx-initial-encoding-date 2015/06/16/
%%humdrum-veritas 929679769
%%humdrum-veritas-data 4151808963
%%linebreak <none>
%%barnumbers 0
L: 1/4
M: 3/1
Q: 1/2=120
%%staves [1 2 3 4]
V: 1 clef=treble
V: 2 clef=treble-8
V: 3 clef=treble-8
V: 4 clef=bass
K: F
[V:1] D6E2F4 | 
[V:2] d6c2d4 | 
[V:3] z12 | 
[V:4] z12 | 
[V:1] G4z2F4G2 | 
[V:2] G4d6c2- | 
[V:3] z12 | 
[V:4] z12 | 
[V:1] A4B6A2- | 
[V:2] c2BAGABcd4- | 
[V:3] z12 | 
[V:4] z12 | 
[V:1] A2B4AGF2DE | 
[V:2] d4GABcd4- | 
[V:3] z12 | 
[V:4] z12 | 
[V:1] FGA3DG4^F2 | 
[V:2] d4B2c2A4 | 
[V:3] z12 | 
[V:4] D,6C,2D,4 | 
[V:1] G4z4z4 | 
[V:2] G4z4z4 | 
[V:3] z4d6c2- | 
[V:4] G,,4z2D,4E,2 | 
[V:1] z12 | 
[V:2] z12 | 
[V:3] c2BAB2GABcd2- | 
[V:4] F,4G,8 | 
[V:1] z12 | 
[V:2] z12 | 
[V:3] d2c3Bc3BcB | 
[V:4] F,3E,F,3E,F,2F,2- | 
[V:1] z12 | 
[V:2] z12 | 
[V:3] AGF2c2d4c2 | 
[V:4] F,E,F,3E,D,C,B,,2A,,2 | 
[V:1] z12 | 
[V:2] z12 | 
[V:3] B2A3GG4^F2 | 
[V:4] D,4C,2B,,2A,,4 | 
[V:1] B8c4 | 
[V:2] d8e4 | 
[V:3] G8z4 | 
[V:4] G,,8z4 | 
[V:1] d6c4BA | 
[V:2] d4f4e4 | 
[V:3] z12 | 
[V:4] z12 | 
[V:1] B2A3GA3GA2- | 
[V:2] d3cd3cd3c | 
[V:3] z12 | 
[V:4] z12 | 
[V:1] AGABc2B4A2 | 
[V:2] def4d2e4 | 
[V:3] z4z4c4 | 
[V:4] z12 | 
[V:1] B4z4z4 | 
[V:2] d4z4z4 | 
[V:3] B4A4G4 | 
[V:4] G,4F,4E,4 | 
[V:1] z12 | 
[V:2] z12 | 
[V:3] z2A2B2c4B2- | 
[V:4] D,4z2E,2F,2G,2- | 
[V:1] z4c4B2G2 | 
[V:2] z4z4g4 | 
[V:3] B2AGA4G4 | 
[V:4] G,2F,E,F,4G,4 | 
[V:1] A2B2c3AB2G2 | 
[V:2] f2d2e2f2g2e2 | 
[V:3] z12 | 
[V:4] z12 | 
[V:1] FGABc2B4A2- | 
[V:2] f2d2c2d3cBA | 
[V:3] z12 | 
[V:4] z4z2D,2E,2F,2 | 
[V:1] A2G2A4z4 | 
[V:2] B4A4z4 | 
[V:3] z4z2A2B2c2 | 
[V:4] G,4z2D,4E,2 | 
[V:1] z12 | 
[V:2] z12 | 
[V:3] d4z2A4B2 | 
[V:4] F,2G,3F,E,D,C,2B,,2 | 
[V:1] z2A4B2c2d2- | 
[V:2] z4f8 | 
[V:3] c2d6c2B2- | 
[V:4] F,4D,2B,,2F,2B,,2- | 
[V:1] dcBAG2F4F2 | 
[V:2] d4e2d4d2 | 
[V:3] B2B4A2B4- | 
[V:4] B,,2B,,2C,2D,2B,,4- | 
[V:1] G2B4A2B4- | 
[V:2] d2f3edcd4 | 
[V:3] B4c4B4- | 
[V:4] B,,4F,4B,,3C, | 
[V:1] B2c3BGAB3A | 
[V:2] d2e4e2d4 | 
[V:3] B2AGc3BGAB2- | 
[V:4] D,2C,3D,E,F,G,4 | 
[V:1] FGA4G4^F2 | 
[V:2] d2d4c2d4 | 
[V:3] BAF2G4A4 | 
[V:4] D,4E,4D,4 | 
[V:1] G8z2B2- | 
[V:2] d8z4 | 
[V:3] G12 | 
[V:4] G,,12 | 
[V:1] B2B2A2G2B4 | 
[V:2] d3ef2g4de | 
[V:3] z12 | 
[V:4] z12 | 
[V:1] A2G2B3AF3G | 
[V:2] f2g4d4f2- | 
[V:3] z12 | 
[V:4] z12 | 
[V:1] ABc2B2A4G2 | 
[V:2] f2c2d2A2B4 | 
[V:3] z12 | 
[V:4] z12 | 
[V:1] A4z4D3E | 
[V:2] A4z4z4 | 
[V:3] d4d8 | 
[V:4] D,3E,F,2G,4B,2 | 
[V:1] F2G4B2A2G2 | 
[V:2] z12 | 
[V:3] c2B2d8 | 
[V:4] A,2G,2B,3A,F,2G,2- | 
[V:1] B3AFGA3Bcd | 
[V:2] z12 | 
[V:3] B2c2d4A3F | 
[V:4] G,2F,E,D,4F,4 | 
[V:1] B2A4G2A4 | 
[V:2] z4d3efgf2- | 
[V:3] G2A2B4A2d2- | 
[V:4] z2F,2G,4D,3E, | 
[V:1] z2A2A2B2c4 | 
[V:2] f2edf4e4 | 
[V:3] d2c4B3AA2 | 
[V:4] F,G,F,4E,D,C,4 | 
[V:1] d4d2d3cBA | 
[V:2] d6f3edc | 
[V:3] B12- | 
[V:4] B,,8z2B,,2 | 
[V:1] G4z2G2c4- | 
[V:2] B4z2B2_e4 | 
[V:3] B4G8 | 
[V:4] _E,4E,4C,4- | 
[V:1] c4A2d2cBAG | 
[V:2] _e4c2d4c2 | 
[V:3] z2c4A4G2 | 
[V:4] C,4F,4E,4 | 
[V:1] F2B2A2G4^F2 | 
[V:2] d3efd2cd4 | 
[V:3] A2B2cBAGA4 | 
[V:4] D,2G,2F,2E,2D,4 | 
[V:1] G12 ||  
[V:2] d12 ||  
[V:3] G12 ||  
[V:4] G,,12 ||  
[V:1]  [K:F] [K:clef=treble][M:2/1]A6GF | 
[V:2]  [K:F] [K:clef=treble-8][M:2/1]d4A4 | 
[V:3]  [K:F] [K:clef=treble-8][M:2/1]z8 | 
[V:4]  [K:F] [K:clef=bass][M:2/1]z8 | 
[V:1] E2A3GFE | 
[V:2] c8 | 
[V:3] z8 | 
[V:4] z8 | 
[V:1] D8 | 
[V:2] d8 | 
[V:3] d6cB | 
[V:4] G,4D,4 | 
[V:1] z4A4 | 
[V:2] z8 | 
[V:3] A2d3cBA | 
[V:4] F,8 | 
[V:1] B4d4 | 
[V:2] z4d4 | 
[V:3] G8 | 
[V:4] G,8 | 
[V:1] c4B4 | 
[V:2] e3fg2e2- | 
[V:3] z8 | 
[V:4] z4G,4 | 
[V:1] A4G4 | 
[V:2] e2d4^c2 | 
[V:3] z8 | 
[V:4] F,4E,4 | 
[V:1] F8 | 
[V:2] d8 | 
[V:3] A4B4 | 
[V:4] D,8 | 
[V:1] z4G4 | 
[V:2] z4e4- | 
[V:3] c6B2 | 
[V:4] C,8- | 
[V:1] A2c3BAG | 
[V:2] e2dce2c2- | 
[V:3] A2G2c3B | 
[V:4] C,8 | 
[V:1] F4G4 | 
[V:2] c2f4e2 | 
[V:3] A4G4 | 
[V:4] z4C,4 | 
[V:1] A3Bc2A2- | 
[V:2] f8 | 
[V:3] F3GABc2- | 
[V:4] F,8 | 
[V:1] A2G4^F2 | 
[V:2] e2d2d4 | 
[V:3] cBAGA4 | 
[V:4] G,4D,4 | 
[V:1] G4z2B2- | 
[V:2] z4G4 | 
[V:3] G8 | 
[V:4] G,,8 | 
[V:1] BAd4c2 | 
[V:2] d4e4 | 
[V:3] z8 | 
[V:4] z8 | 
[V:1] d2A4d2- | 
[V:2] d4f4- | 
[V:3] z8 | 
[V:4] z8 | 
[V:1] d2c3BAG | 
[V:2] f4e4 | 
[V:3] z8 | 
[V:4] z4C,4 | 
[V:1] F4E4 | 
[V:2] d4z4 | 
[V:3] A8 | 
[V:4] D,4C,4 | 
[V:1] D8 | 
[V:2] f6ed | 
[V:3] B8- | 
[V:4] B,,8 | 
[V:1] D4F4- | 
[V:2] f2d4cB | 
[V:3] B8 | 
[V:4] B,,4B,,4 | 
[V:1] F2EDF2G2- | 
[V:2] d6G2 | 
[V:3] B8 | 
[V:4] B,,3C,D,2_E,2- | 
[V:1] GFB4A2 | 
[V:2] d4c4 | 
[V:3] B4c4 | 
[V:4] E,D,B,,2F,4 | 
[V:1] B3AG2F2 | 
[V:2] B8 | 
[V:3] d8 | 
[V:4] B,,2G,3F,_E,D, | 
[V:1] c3BA2G2 | 
[V:2] c8 | 
[V:3] _e8 | 
[V:4] C,8 | 
[V:1] F8 | 
[V:2] A4d4 | 
[V:3] d3cB2A2 | 
[V:4] D,8 | 
[V:1] G6A2- | 
[V:2] c3de2A2- | 
[V:3] G4G2c2- | 
[V:4] =E,4E,2F,2- | 
[V:1] A2G3^FF2 | 
[V:2] ABc2d4 | 
[V:3] cBG2A4 | 
[V:4] F,G,E,2D,4 | 
[V:1] G8 | 
[V:2] d8 | 
[V:3] G8 | 
[V:4] G,,8 | 
[V:1] z8 | 
[V:2] z8 | 
[V:3] z2A2B2A2- | 
[V:4] D,8- | 
[V:1] z8 | 
[V:2] z8 | 
[V:3] AB/c/d4c2 | 
[V:4] D,4E,4 | 
[V:1] z8 | 
[V:2] z8 | 
[V:3] d4c2d2- | 
[V:4] z2D,2E,2D,2- | 
[V:1] z8 | 
[V:2] z8 | 
[V:3] d2cBA4 | 
[V:4] D,E,/F,/G,4^F,2 | 
[V:1] z8 | 
[V:2] z8 | 
[V:3] z2G2A2G2- | 
[V:4] G,4C,4- | 
[V:1] z8 | 
[V:2] z8 | 
[V:3] GA/B/c4B2 | 
[V:4] C,4D,4 | 
[V:1] z8 | 
[V:2] z8 | 
[V:3] A2G3FED | 
[V:4] C,3D,E,2D,2- | 
[V:1] z8 | 
[V:2] z8 | 
[V:3] E4D4 | 
[V:4] D,2^C,2D,4 | 
[V:1] z2A2B2A2- | 
[V:2] d8- | 
[V:3] z8 | 
[V:4] z8 | 
[V:1] AB/c/d4c2 | 
[V:2] d4e4 | 
[V:3] z8 | 
[V:4] z8 | 
[V:1] d4c2d2- | 
[V:2] z2d2e2d2- | 
[V:3] z8 | 
[V:4] z8 | 
[V:1] d2cBA4 | 
[V:2] de/f/g4^f2 | 
[V:3] z8 | 
[V:4] z8 | 
[V:1] z2G2A2G2- | 
[V:2] g4c4- | 
[V:3] z8 | 
[V:4] z8 | 
[V:1] GA/B/c4B2 | 
[V:2] c4d4- | 
[V:3] z8 | 
[V:4] z8 | 
[V:1] A2GFE4 | 
[V:2] d4^c4 | 
[V:3] z8 | 
[V:4] z8 | 
[V:1] D4d4 | 
[V:2] d4f4 | 
[V:3] z4A4 | 
[V:4] z4D,4 | 
[V:1] d3cB2A2- | 
[V:2] g4g2f2- | 
[V:3] B4d4 | 
[V:4] G,4G,2D,2- | 
[V:1] ABc2A2d2- | 
[V:2] f2e4f2 | 
[V:3] A3Bc2A2 | 
[V:4] D,2A,3G,F,E, | 
[V:1] d2A4A2- | 
[V:2] f6ed | 
[V:3] d4A4 | 
[V:4] D,8 | 
[V:1] ABc2A2d2- | 
[V:2] c4z4 | 
[V:3] A3Bc2A2 | 
[V:4] F,3G,A,2D,2- | 
[V:1] d2A4G2 | 
[V:2] z8 | 
[V:3] d3cB4 | 
[V:4] D,E,F,2G,4 | 
[V:1] A2B4A2- | 
[V:2] d8- | 
[V:3] A4G2A2 | 
[V:4] D,2G,4F,2 | 
[V:1] A2G2A2B2- | 
[V:2] d8 | 
[V:3] B3AA4 | 
[V:4] G,4D,2G,2- | 
[V:1] BcA4G2 | 
[V:2] d8 | 
[V:3] G2A2B3c | 
[V:4] G,2F,2G,4 | 
[V:1] A4z2d2- | 
[V:2] d2f3ef2 | 
[V:3] A2d3cBA | 
[V:4] D,8 | 
[V:1] dcBAG2F2 | 
[V:2] g2d2z2d2 | 
[V:3] G2F2B4 | 
[V:4] z2D,2_E,2D,2 | 
[V:1] B6A2- | 
[V:2] f4f3e | 
[V:3] d6c2- | 
[V:4] B,,3C,D,E,F,2 | 
[V:1] A2G3^FF2 | 
[V:2] d2c2d4 | 
[V:3] cBAGA4 | 
[V:4] G,2E,2D,4 | 
[V:1] G8- | 
[V:2] d8 | 
[V:3] G8- | 
[V:4] G,,8- | 
[V:1] G8 |]  
[V:2] d8 |]  
[V:3] G8 |]  
[V:4] G,,8 |]  



